X:413
T:Little Linnings in Love Who is He. RH.413
R:slip jig
S:Rev.R.Harrison’s MS,c1815,Cumbria
O:England
A:Temple Sowerby,Cumbria
Z:vmp.Simon Wilson. Review PJH, 2008.
M:9/8
L:1/8
Q:3/8=120
K:A
E|AAA BcB GAB|cAA dBc d2B|AAA BcB GAB|\
ccc dBG A2e|!
ecc dBA GAB|ecc dBc d2B|\
ecc dBA GAB|ccc dBG A2E/E/|!
AAA BcA GAB|\
cAA dBc d2B|AAA BcA GAB|ccc dBG A2|]

